sources/design/Outline/asterisk.svg

<svg:svg xmlns:cc="http://creativecommons.org/ns#" xmlns:dc="http://purl.org/dc/elements/1.1/" xmlns:inkscape="http://www.inkscape.org/namespaces/inkscape" xmlns:rdf="http://www.w3.org/1999/02/22-rdf-syntax-ns#" xmlns:sodipodi="http://sodipodi.sourceforge.net/DTD/sodipodi-0.dtd" xmlns:svg="http://www.w3.org/2000/svg" xml:space="preserve" width="1000" height="1000" version="1.1" style="clip-rule:evenodd;fill-rule:evenodd;image-rendering:optimizeQuality;shape-rendering:geometricPrecision;text-rendering:geometricPrecision" viewBox="0 0 1000 1000" id="svg10" sodipodi:docname="asterisk.svg" inkscape:version="1.0.2 (e86c870879, 2021-01-15)"><svg:metadata id="metadata14"><rdf:RDF><cc:Work rdf:about=""><dc:format>image/svg+xml</dc:format><dc:type rdf:resource="http://purl.org/dc/dcmitype/StillImage" /><dc:title /></cc:Work></rdf:RDF></svg:metadata><sodipodi:namedview pagecolor="#ffffff" bordercolor="#666666" borderopacity="1" objecttolerance="10" gridtolerance="10" guidetolerance="10" inkscape:pageopacity="0" inkscape:pageshadow="2" inkscape:window-width="1920" inkscape:window-height="1127" id="namedview12" showgrid="false" inkscape:zoom="0.6002692" inkscape:cx="285.74292" inkscape:cy="471.01191" inkscape:window-x="0" inkscape:window-y="0" inkscape:window-maximized="1" inkscape:current-layer="svg10" showguides="true" inkscape:guide-bbox="true" inkscape:document-rotation="0" inkscape:pagecheckerboard="0"><sodipodi:guide position="0,1000" orientation="0,1" id="guide16" inkscape:label="" inkscape:locked="true" inkscape:color="rgb(0,0,255)" /><sodipodi:guide position="1763.3122,2036.1693" orientation="1000,0" id="guide18" /><sodipodi:guide position="0,200" orientation="0,1" id="guide20" inkscape:label="base" inkscape:locked="true" inkscape:color="rgb(0,0,255)" /><inkscape:grid type="xygrid" id="grid24" originx="-473.37552" originy="-489.69235" /><sodipodi:guide position="0,0" orientation="0,1" id="guide34" inkscape:label="bottom" inkscape:locked="true" inkscape:color="rgb(0,0,255)" /><sodipodi:guide position="225.05109,1693.3186" orientation="0,1" id="guide44" inkscape:label="" inkscape:locked="false" inkscape:color="rgb(0,0,255)" /><sodipodi:guide position="0,900" orientation="0,1" id="guide46" inkscape:label="" inkscape:locked="true" inkscape:color="rgb(0,0,255)" /><sodipodi:guide position="644.75995,682.69938" orientation="-1,0" id="guide841" inkscape:label="width" inkscape:locked="false" inkscape:color="rgb(0,0,255)" /><sodipodi:guide position="479.78474,336.96415" orientation="0,-1" id="guide850" /><sodipodi:guide position="336.51568,715.12781" orientation="0,-1" id="guide852" /><sodipodi:guide position="474.78698,511.88567" orientation="0,-1" id="guide854" /><sodipodi:guide position="326.52017,751.77804" orientation="1,0" id="guide856" /></sodipodi:namedview>
 <svg:defs id="defs4"><inkscape:path-effect effect="fillet_chamfer" id="path-effect858" is_visible="true" lpeversion="1" satellites_param="F,0,1,1,0,19.444143,0,1 @ F,0,1,1,0,19.444143,0,1 @ F,0,0,1,0,0,0,1 @ F,0,1,1,0,19.444143,0,1 @ F,0,1,1,0,19.444143,0,1 @ F,0,0,1,0,0,0,1 @ F,0,1,1,0,19.444143,0,1 @ F,0,1,1,0,19.444143,0,1 @ F,0,0,1,0,0,0,1 @ F,0,1,1,0,19.444143,0,1 @ F,0,1,1,0,19.444143,0,1 @ F,0,0,1,0,0,0,1 @ F,0,1,1,0,19.444143,0,1 @ F,0,1,1,0,19.444143,0,1 @ F,0,0,1,0,0,0,1" unit="px" method="auto" mode="F" radius="0" chamfer_steps="1" flexible="false" use_knot_distance="true" apply_no_radius="true" apply_with_radius="true" only_selected="true" hide_knots="false" /><inkscape:path-effect effect="spiro" id="path-effect852" is_visible="true" lpeversion="1" /><inkscape:path-effect effect="spiro" id="path-effect850" is_visible="true" lpeversion="1" /><inkscape:path-effect effect="spiro" id="path-effect851" is_visible="true" lpeversion="1" />
  <svg:style type="text/css" id="style2">
   
    .fil0 {fill:#EF7F1A;fill-rule:nonzero}
   
  </svg:style>
 <inkscape:path-effect effect="spiro" id="path-effect1214" is_visible="true" lpeversion="1" /><inkscape:path-effect effect="spiro" id="path-effect1195" is_visible="true" lpeversion="1" /><inkscape:path-effect effect="spiro" id="path-effect992" is_visible="true" lpeversion="1" /><inkscape:path-effect effect="spiro" id="path-effect1060" is_visible="true" lpeversion="1" /><inkscape:path-effect effect="spiro" id="path-effect1047" is_visible="true" lpeversion="1" /><inkscape:path-effect effect="spiro" id="path-effect1085" is_visible="true" lpeversion="1" /><inkscape:path-effect effect="spiro" id="path-effect1286" is_visible="true" lpeversion="1" /><inkscape:path-effect effect="spiro" id="path-effect1305" is_visible="true" lpeversion="1" /></svg:defs>
 
<svg:g id="path849"><svg:path style="color:#000000;clip-rule:nonzero;fill:#1a5fb4;fill-rule:nonzero;stroke-linecap:round;stroke-linejoin:round;-inkscape-stroke:none;paint-order:fill stroke markers;shape-rendering:auto" d="M 249.20508,90.396484 C 220.72574,90.238929 198.36982,117.71396 204.31445,145.56641 L 242.65234,325.1875 L 42.013672,262.08789 C 14.670023999999998,253.48831 -14.915902000000003,273.84231 -16.662109,302.45312 L -26.699219,466.87891 C -28.407134,494.86232 -3.815948800000001,518.76257 24.107422,516.2578100000001 L 174.66406,502.75195 L 14.628906,628.68555 C -7.3115749,645.9507600000001 -9.0726956,679.9120300000001 10.962891,699.3554700000001 L 122.90234,807.98828 C 143.43325,827.91241 178.88415,823.1797700000001 193.4707,798.56836 L 326.57812,573.98047 L 476.33008,800.33594 C 492.04777,824.09365 527.33381,827.3684800000001 547.1543,806.9082000000001 L 652.7793,697.875 C 672.1721,677.85622 669.4845700000001,644.06976 647.17187,627.3671899999999 L 481.63086,503.44922 L 622.6875,516.23633 C 650.79455,518.7841699999999 675.41095,494.24592999999993 672.95312,466.13086 L 658.57227,301.62891 C 656.08138,273.13565 626.20311,253.51563000000002 599.06641,262.55273 L 410.96289,325.19531 L 446.33398,146.23633 C 451.8219,118.46966 429.6979,91.394863 401.39453,91.238281 L 249.20508,90.396484 M 266.71875,150.49414000000002 L 384.20312,151.14258 L 342.10742,364.12695 A 30.003,30.003 0.0 0,0 381.01758,398.40625 L 600.41406,325.3418 L 611.75,455.0 L 381.59766,434.13672 A 30.003,30.003 0.0 0,0 360.91211000000004,488.03125 L 599.50586,666.6328100000001 L 516.50391,752.31641 L 350.19922,500.94531 A 30.003,30.003 0.0 0,0 299.37305000000003,502.20117 L 151.33789,751.97461 L 63.412109,666.64648 L 291.17187,487.41992 A 30.003,30.003 0.0 0,0 269.93945,433.96484 L 34.130859000000015,455.11913999999996 L 42.07226600000001,325.00390999999996 L 273.73047,397.85936999999996 A 30.003,30.003 0.0 0,0 312.07031,362.98046999999997 L 266.71875,150.49414000000002" id="path20371" /></svg:g></svg:svg>

<svg:svg xmlns:cc="http://creativecommons.org/ns#" xmlns:dc="http://purl.org/dc/elements/1.1/" xmlns:inkscape="http://www.inkscape.org/namespaces/inkscape" xmlns:rdf="http://www.w3.org/1999/02/22-rdf-syntax-ns#" xmlns:sodipodi="http://sodipodi.sourceforge.net/DTD/sodipodi-0.dtd" xmlns:svg="http://www.w3.org/2000/svg" xml:space="preserve" width="1000" height="1000" version="1.1" style="clip-rule:evenodd;fill-rule:evenodd;image-rendering:optimizeQuality;shape-rendering:geometricPrecision;text-rendering:geometricPrecision" viewBox="0 0 1000 1000" id="svg10" sodipodi:docname="asterisk.svg" inkscape:version="1.0.2 (e86c870879, 2021-01-15)"><svg:metadata id="metadata14"><rdf:RDF><cc:Work rdf:about=""><dc:format>image/svg+xml</dc:format><dc:type rdf:resource="http://purl.org/dc/dcmitype/StillImage" /><dc:title /></cc:Work></rdf:RDF></svg:metadata><sodipodi:namedview pagecolor="#ffffff" bordercolor="#666666" borderopacity="1" objecttolerance="10" gridtolerance="10" guidetolerance="10" inkscape:pageopacity="0" inkscape:pageshadow="2" inkscape:window-width="1920" inkscape:window-height="1127" id="namedview12" showgrid="false" inkscape:zoom="0.6002692" inkscape:cx="285.74292" inkscape:cy="471.01191" inkscape:window-x="0" inkscape:window-y="0" inkscape:window-maximized="1" inkscape:current-layer="svg10" showguides="true" inkscape:guide-bbox="true" inkscape:document-rotation="0" inkscape:pagecheckerboard="0"><sodipodi:guide position="0,1000" orientation="0,1" id="guide16" inkscape:label="" inkscape:locked="true" inkscape:color="rgb(0,0,255)" /><sodipodi:guide position="1763.3122,2036.1693" orientation="1000,0" id="guide18" /><sodipodi:guide position="0,200" orientation="0,1" id="guide20" inkscape:label="base" inkscape:locked="true" inkscape:color="rgb(0,0,255)" /><inkscape:grid type="xygrid" id="grid24" originx="-473.37552" originy="-489.69235" /><sodipodi:guide position="0,0" orientation="0,1" id="guide34" inkscape:label="bottom" inkscape:locked="true" inkscape:color="rgb(0,0,255)" /><sodipodi:guide position="225.05109,1693.3186" orientation="0,1" id="guide44" inkscape:label="" inkscape:locked="false" inkscape:color="rgb(0,0,255)" /><sodipodi:guide position="0,900" orientation="0,1" id="guide46" inkscape:label="" inkscape:locked="true" inkscape:color="rgb(0,0,255)" /><sodipodi:guide position="644.75995,682.69938" orientation="-1,0" id="guide841" inkscape:label="width" inkscape:locked="false" inkscape:color="rgb(0,0,255)" /><sodipodi:guide position="479.78474,336.96415" orientation="0,-1" id="guide850" /><sodipodi:guide position="336.51568,715.12781" orientation="0,-1" id="guide852" /><sodipodi:guide position="474.78698,511.88567" orientation="0,-1" id="guide854" /><sodipodi:guide position="326.52017,751.77804" orientation="1,0" id="guide856" /></sodipodi:namedview>
 <svg:defs id="defs4"><inkscape:path-effect effect="fillet_chamfer" id="path-effect858" is_visible="true" lpeversion="1" satellites_param="F,0,1,1,0,19.444143,0,1 @ F,0,1,1,0,19.444143,0,1 @ F,0,0,1,0,0,0,1 @ F,0,1,1,0,19.444143,0,1 @ F,0,1,1,0,19.444143,0,1 @ F,0,0,1,0,0,0,1 @ F,0,1,1,0,19.444143,0,1 @ F,0,1,1,0,19.444143,0,1 @ F,0,0,1,0,0,0,1 @ F,0,1,1,0,19.444143,0,1 @ F,0,1,1,0,19.444143,0,1 @ F,0,0,1,0,0,0,1 @ F,0,1,1,0,19.444143,0,1 @ F,0,1,1,0,19.444143,0,1 @ F,0,0,1,0,0,0,1" unit="px" method="auto" mode="F" radius="0" chamfer_steps="1" flexible="false" use_knot_distance="true" apply_no_radius="true" apply_with_radius="true" only_selected="true" hide_knots="false" /><inkscape:path-effect effect="spiro" id="path-effect852" is_visible="true" lpeversion="1" /><inkscape:path-effect effect="spiro" id="path-effect850" is_visible="true" lpeversion="1" /><inkscape:path-effect effect="spiro" id="path-effect851" is_visible="true" lpeversion="1" />
  <svg:style type="text/css" id="style2">
   
    .fil0 {fill:#EF7F1A;fill-rule:nonzero}
   
  </svg:style>
 <inkscape:path-effect effect="spiro" id="path-effect1214" is_visible="true" lpeversion="1" /><inkscape:path-effect effect="spiro" id="path-effect1195" is_visible="true" lpeversion="1" /><inkscape:path-effect effect="spiro" id="path-effect992" is_visible="true" lpeversion="1" /><inkscape:path-effect effect="spiro" id="path-effect1060" is_visible="true" lpeversion="1" /><inkscape:path-effect effect="spiro" id="path-effect1047" is_visible="true" lpeversion="1" /><inkscape:path-effect effect="spiro" id="path-effect1085" is_visible="true" lpeversion="1" /><inkscape:path-effect effect="spiro" id="path-effect1286" is_visible="true" lpeversion="1" /><inkscape:path-effect effect="spiro" id="path-effect1305" is_visible="true" lpeversion="1" /></svg:defs>
 
<svg:g id="path849"><svg:path style="color:#000000;clip-rule:nonzero;fill:#1a5fb4;fill-rule:nonzero;stroke-linecap:round;stroke-linejoin:round;-inkscape-stroke:none;shape-rendering:auto" d="M 249.20508,90.396484 C 220.72574,90.238929 198.36982,117.71396 204.31445,145.56641 L 242.65234,325.1875 42.013672,262.08789 c -27.343648,-8.59958 -56.929574,11.75442 -58.675781,40.36523 l -10.03711,164.42579 c -1.707915,27.98341 22.8832702,51.88366 50.806641,49.3789 L 174.66406,502.75195 14.628906,628.68555 c -21.9404809,17.26521 -23.7016016,51.22648 -3.666015,70.66992 L 122.90234,807.98828 c 20.53091,19.92413 55.98181,15.19149 70.56836,-9.41992 L 326.57812,573.98047 476.33008,800.33594 c 15.71769,23.75771 51.00373,27.03254 70.82422,6.57226 L 652.7793,697.875 c 19.3928,-20.01878 16.70527,-53.80524 -5.60743,-70.50781 L 481.63086,503.44922 622.6875,516.23633 c 28.10705,2.54784 52.72345,-21.9904 50.26562,-50.10547 L 658.57227,301.62891 c -2.49089,-28.49326 -32.36916,-48.11328 -59.50586,-39.07618 L 410.96289,325.19531 446.33398,146.23633 C 451.8219,118.46966 429.6979,91.394863 401.39453,91.238281 Z m 17.51367,60.097656 117.48437,0.64844 -42.0957,212.98437 a 30.003,30.003 0 0 0 38.91016,34.2793 L 600.41406,325.3418 611.75,455 381.59766,434.13672 a 30.003,30.003 0 0 0 -20.68555,53.89453 l 238.59375,178.60156 -83.00195,85.6836 -166.30469,-251.3711 a 30.003,30.003 0 0 0 -50.82617,1.25586 L 151.33789,751.97461 63.412109,666.64648 291.17187,487.41992 a 30.003,30.003 0 0 0 -21.23242,-53.45508 l -235.808591,21.1543 7.941407,-130.11523 231.658204,72.85546 a 30.003,30.003 0 0 0 38.33984,-34.8789 z" id="path20319" /></svg:g></svg:svg>
